!!!!SEGMENT: pl-wumfc--r282--003-008_paderewski-ignacy-jan--exercises-3-exercise-8.krn
!!!cenid: 18xx:3203
!!!COM: Paderewski, Ignacy Jan
!!!COM-rismID: pe30029943
!!!CDT: 1860/11/18-1941/06/29
!!!CNT: Polish
!!!GTL: [Exercises 3]
!!!OTL: [Exercise] 8
!!!OMV: 008
!!!PDT:
!!!AGN:
!!!YEC: Copyright 2022 Narodowy Instytut Fryderyka Chopina (https://polishscores.org)
!!!YEM: License CC-BY-4.0 (https://creativecommons.org/licenses/by/4.0)
!!!SMS-siglum: PL-Wumfc
!!!SMS-shelfmark: R282
!!!SMS-shelfwork: 003-008 G
!!!SMS-variant:
!!!SMS-altvar:
!!!NIFC-rismSourceID: 1001158933
!!!NIFC-rismChildID: 1001158933
!!!NIFC-islandoraID: pl-wumfc:419
!!!URL-pdf-islandora: https://repozytorium.nifc.pl/islandora/object/pl-wumfc%3A419/datastream/PDF/view
!!!URL-scan: https://polish.musicsources.pl/pl/lokalizacje/galeria/rekopisy/4702 @EN{Scan on Polish Music Sources Website} @PL{Skany w portalu Dziedzictwo Muzyki Polskiej w otwartym dostępie}
!!!IIIF:
!!!ONB-nifc: UWAGA: druga grupa ćwiczeń od skanu 0011, prawa strona, 3 system. Nr 003 i 004 nienumerowane – skan 0012, lewa strona. Nr 010 nienumerowany – skan 0014, 3 pierwsze systemy
!!!AIN: 2 piano
!!!key: F
**kern	**kern
*part2	*part1
*staff2	*staff1
*I"[Pianoforte]	*I"[Pianoforte]
*Ipiano	*Ipiano
*ICklav	*ICklav
*IGsolo	*IGsolo
*clefF4	*clefG2
!!LO:MO:mod
!! *M4/4	*M4/4
!!LO:MO:end
*k[b-]	*k[b-]
*F:	*F:
=1	=1
*^	*^
1f	1F	4a/	1f
.	.	4b-/	.
.	.	4cc/	.
.	.	4dd/	.
=2	=2	=2	=2
1c	1F	4cc/	1a
.	.	4dd/	.
.	.	4ee/	.
.	.	4ff/	.
=3	=3	=3	=3
1e	1C	4ee/	1cc
.	.	4dd/	.
.	.	4ee/	.
.	.	4gg/	.
=4	=4	=4	=4
1d	1D	4ff/	1a
.	.	4gg/	.
.	.	4ff/	.
.	.	4a/	.
=5	=5	=5	=5
1B-	1G	4b-/	1g
.	.	4cc/	.
.	.	4dd/	.
.	.	4ee/	.
=6	=6	=6	=6
1A	1E	4ff/	1a
.	.	4gg/	.
.	.	4aa/	.
.	.	4ff/	.
=7	=7	=7	=7
1G	1G	4ee/	1bn
.	.	4ff/	.
.	.	4ee/	.
.	.	4dd/	.
=8	=8	=8	=8
!LO:SIC:s=1e;:v	!LO:SIC:s=1C;:v	!	!
1e	1C	1cc;	1cc;
!!LO:LB:g=original
=9	=9	=9	=9
1a	1d	4ff/	1dd
.	.	4ee/	.
.	.	4ff/	.
.	.	4gg/	.
=10	=10	=10	=10
1a	1A	4aa/	1cc
.	.	4gg/	.
.	.	4aa/	.
.	.	4ee/	.
=11	=11	=11	=11
1d	1d	4ff/	1a
.	.	4ee/	.
.	.	4dd/	.
.	.	4cc/	.
=12	=12	=12	=12
1d	1G	4b-/	1g
.	.	4cc/	.
.	.	4dd/	.
.	.	4ee/	.
=13	=13	=13	=13
1c	1A	4ff/	1f
.	.	4gg/	.
.	.	4ff/	.
.	.	4ee/	.
=14	=14	=14	=14
1A	1F	4dd/	1a
.	.	4ee/	.
.	.	4dd/	.
.	.	4cc/	.
=15	=15	=15	=15
1B-	1G	4b-/	1g
.	.	4cc/	.
.	.	4dd/	.
.	.	4ee/	.
=16	=16	=16	=16
1d;	1D;	1ff;	1f;
=17	=17	=17	=17
1c	1C	4ee/	1g
.	.	4dd/	.
.	.	4ee/	.
.	.	4gg/	.
!!LO:LB:g=original
=18	=18	=18	=18
1c	1F	4ff/	1a
.	.	4gg/	.
.	.	4ff/	.
.	.	4ee/	.
=19	=19	=19	=19
1d	1D	4ff/	1a
.	.	4ee/	.
.	.	4ff/	.
.	.	4aa/	.
=20	=20	=20	=20
1B-	1G	4bb-/	1g
.	.	4aa/	.
.	.	4gg/	.
.	.	4ff/	.
=21	=21	=21	=21
1e	1A	4ee/	1cc
.	.	4ff/	.
.	.	4ee/	.
.	.	4dd/	.
=22	=22	=22	=22
1c	1C	4ee/	1cc
.	.	4ff/	.
.	.	4gg/	.
.	.	4aa/	.
=23	=23	=23	=23
1d	1G	4gg/	1bn
.	.	4aa/	.
.	.	4gg/	.
.	.	4ff/	.
=24	=24	=24	=24
1e;	1C;	1ee;	1cc;
=25	=25	=25	=25
1c	1F	4ff/	1a
.	.	4gg/	.
.	.	4aa/	.
.	.	4gg/	.
=26	=26	=26	=26
1d	1BB-	4ff/	1b-X
.	.	4gg/	.
.	.	4ff/	.
.	.	4ee/	.
!!LO:PB:g=original
=27	=27	=27	=27
1f	1D	4ff/	1a
.	.	4ee/	.
.	.	4ff/	.
.	.	4a/	.
=28	=28	=28	=28
1d	1GG@	4b-/	1g
.	.	4cc/	.
.	.	4dd/	.
.	.	4ee/	.
=29	=29	=29	=29
1c	1AA@	4ff/	1f
.	.	4ee/	.
.	.	4ff/	.
.	.	4cc/	.
=30	=30	=30	=30
1B-	1BB-@	4dd/	1f
.	.	4cc/	.
.	.	4b-/	.
.	.	4dd/	.
=31	=31	=31	=31
1G	1C	4cc/	1e
.	.	4dd/	.
.	.	4cc/	.
.	.	4b-/	.
=32	=32	=32	=32
!	!LO:SIC:s=1F;:v	!	!LO:SIC:s=1f;:v
1A;	1F	1a;	1f
*v	*v	*	*
*	*v	*v
==	==
*-	*-
!!!system-decoration: [(s1,s2)]
!!LO:MO:ori
!!!RDF**kern: @ = marked note, color=grey
!!LO:MO:end
!!!filter-modern: sic -sq | shed -e "s/LO:DY:(a|b|rj)/LO:dy:$1/L" | shed -e "s/TX(.*):t=P:/tx$1:t=P:/LG" | modori -m | autostem -r | shed -e "s/yy//" | shed -k -e "s/\(y([^y])/($1/" | shed -e "s/-//B" | shed -k -e "s/[<>]//g" | shed -k -e "s/r[a-gA-G]+/r/D"
!!!ENC: Filip Voros
!!!END: 2021-11-13
!!!EED: Marta Lawrence
!!!EEV: 2021-11-15
!!!EED-modern: Antoni Szymański
!!!END-modern: 2022-09-05
